src/assets/img/icons/duotone-icons/Clothes/Shorts.svg

<?xml version="1.0" encoding="UTF-8"?>
<svg width="24px" height="24px" viewBox="0 0 24 24" version="1.1" xmlns="http://www.w3.org/2000/svg" xmlns:xlink="http://www.w3.org/1999/xlink">
    <!-- Generator: Sketch 52.2 (67145) - http://www.bohemiancoding.com/sketch -->
    <title>Stockholm-icons / Clothes / Shorts</title>
    <desc>Created with Sketch.</desc>
    <g id="Stockholm-icons-/-Clothes-/-Shorts" stroke="none" stroke-width="1" fill="none" fill-rule="evenodd">
        <polygon id="Shape" points="0 0 24 0 24 24 0 24"></polygon>
        <path d="M6.50558119,3.06113043 C6.66317376,3.02121083 6.82822245,3 6.9982252,3 L16.9982252,3 C17.1682279,3 17.3332766,3.02121083 17.4908692,3.06113043 C18.322432,3.11551159 19.0643081,3.69008685 19.2919771,4.53975934 L22.6566247,17.0967951 C22.7995665,17.6302612 22.4829841,18.1785981 21.9495179,18.32154 L15.1880372,20.1332733 C14.6545711,20.2762151 14.1062341,19.9596326 13.9632923,19.4261665 L11.9982252,12.0924362 L10.0331581,19.4261665 C9.89021629,19.9596326 9.34187933,20.2762151 8.80841323,20.1332733 L2.04693244,18.32154 C1.51346634,18.1785981 1.19688385,17.6302612 1.33982566,17.0967951 L4.70447325,4.53975934 C4.9321423,3.69008685 5.67401838,3.11551159 6.50558119,3.06113043 Z" id="Combined-Shape" fill="#335EEA"></path>
    </g>
</svg>

<svg width="24" height="24" viewBox="0 0 24 24" xmlns="http://www.w3.org/2000/svg"><g fill="none" fill-rule="evenodd"><path d="M0 0h24v24H0z"/><path d="M6.506 3.061c.157-.04.322-.061.492-.061h10c.17 0 .335.021.493.061a2 2 0 011.801 1.479l3.365 12.557a1 1 0 01-.707 1.225l-6.762 1.811a1 1 0 01-1.225-.707l-1.965-7.334-1.965 7.334a1 1 0 01-1.225.707l-6.761-1.811a1 1 0 01-.707-1.225L4.704 4.54A2 2 0 016.506 3.06z" fill="#335EEA"/></g></svg>
